X: 930
T: Where did you find her?
C: anon.
O: Ireland
B: Francis O'Neill: "The Dance Music of Ireland" (1907) no. 930
R: Hornpipe
Z: Transcribed by Frank Nordberg - http://www.musicaviva.com
F: http://www.musicaviva.com/abc/tunes/ireland/oneill-1001/oneill-1001-093
0.abc
M: C|
L: 1/8
K: D
({g}f)e|dAFA DAFA|dAFA DAFA|(3(Bcd) ef gefd|edcB Agfe|dAFA DAFA|dAFA D2FA
|B>ged cABc|d2f2d2:|
|:(fg)|a(fdf) .A(dcd)|.F(dcd) .A(dcd)|(3(Bcd) ef gefd|cdef e2(bg)|afdf .A
(dcd)|.F(dcd) .A(dcd)|B>ged cABc|d2f2d2:|
W:
W:
W: From Musica Viva - http://www.musicaviva.com
W: the Internet center for free sheet music downloads.


